src/assets/Icons/Cellphone=Big.svg

<svg width="32" height="32" viewBox="0 0 32 32" fill="none" xmlns="http://www.w3.org/2000/svg">
<path d="M14.072 8.32L9.56133 3.11333C9.04133 2.51333 8.088 2.516 7.484 3.12133L3.77467 6.83733C2.67067 7.94267 2.35467 9.584 2.99333 10.9C6.80882 18.8 13.1801 25.1801 21.0747 29.0067C22.3893 29.6453 24.0293 29.3293 25.1333 28.224L28.8773 24.4733C29.484 23.8667 29.4853 22.908 28.88 22.388L23.6533 17.9013C23.1067 17.432 22.2573 17.4933 21.7093 18.0427L19.8907 19.864C19.7976 19.9616 19.675 20.0259 19.5418 20.0471C19.4086 20.0683 19.2721 20.0452 19.1533 19.9813C16.1806 18.2695 13.7147 15.8003 12.0067 12.8253C11.9427 12.7063 11.9195 12.5696 11.9407 12.4362C11.9619 12.3028 12.0263 12.18 12.124 12.0867L13.9373 10.272C14.4867 9.72 14.5467 8.86667 14.072 8.31867V8.32Z" stroke="black" stroke-width="2" stroke-linecap="round" stroke-linejoin="round"/>
</svg>

<svg xmlns="http://www.w3.org/2000/svg" width="32" height="32" fill="none" xmlns:v="https://vecta.io/nano"><path d="M14.072 8.32L9.561 3.113c-.52-.6-1.473-.597-2.077.008L3.775 6.837c-1.104 1.105-1.42 2.747-.781 4.063 3.815 7.9 10.187 14.28 18.081 18.107 1.315.639 2.955.323 4.059-.783l3.744-3.751c.607-.607.608-1.565.003-2.085l-5.227-4.487c-.547-.469-1.396-.408-1.944.141l-1.819 1.821c-.093.098-.216.162-.349.183s-.27-.002-.388-.066a19.41 19.41 0 0 1-7.147-7.156c-.064-.119-.087-.256-.066-.389s.086-.256.183-.349l1.813-1.815c.549-.552.609-1.405.135-1.953v.001z" stroke="#000" stroke-width="2" stroke-linejoin="round"/></svg>
